client/src/assets/icons/home-and-garden.svg

<svg width="58" height="58" viewBox="0 0 58 58" fill="none" xmlns="http://www.w3.org/2000/svg">
<path d="M14.5 48.3333C13.1708 48.3333 12.0334 47.8604 11.0877 46.9147C10.1419 45.969 9.66827 44.8307 9.66666 43.5V25.6771L7.24999 27.55C6.72638 27.9527 6.13268 28.1139 5.46891 28.0333C4.80513 27.9527 4.27104 27.6305 3.86666 27.0666C3.46388 26.543 3.31324 25.959 3.41474 25.3146C3.51624 24.6701 3.82799 24.1465 4.34999 23.7437L26.1 7.06872C26.543 6.74649 27.0167 6.50483 27.521 6.34372C28.0253 6.18261 28.5384 6.10205 29.0604 6.10205C29.5824 6.10205 30.0859 6.18261 30.5708 6.34372C31.0558 6.50483 31.519 6.74649 31.9604 7.06872L50.025 20.9041C50.7903 21.468 50.982 22.193 50.6002 23.0791C50.2183 23.9652 49.5634 24.3479 48.6354 24.2271C47.5882 24.1062 46.5313 24.1167 45.4647 24.2585C44.3982 24.4002 43.3405 24.6717 42.2917 25.0729C39.875 24.1465 37.3874 23.9354 34.829 24.4397C32.2705 24.944 30.0255 26.162 28.0937 28.0937C26.162 30.0254 24.9432 32.2713 24.4373 34.8314C23.9314 37.3914 24.1433 39.8782 25.0729 42.2916C24.8312 42.9361 24.6299 43.5805 24.4687 44.225C24.3076 44.8694 24.2069 45.534 24.1667 46.2187C24.1264 46.7826 23.9153 47.2764 23.5335 47.7001C23.1517 48.1239 22.678 48.3349 22.1125 48.3333H14.5ZM42.2917 54.0729C40.6 55.2409 38.7375 55.7347 36.7043 55.5543C34.6711 55.3739 32.9287 54.5578 31.4771 53.1062C30.0255 51.6546 29.2102 49.913 29.0314 47.8814C28.8526 45.8498 29.3456 43.9865 30.5104 42.2916C29.3424 40.6 28.8493 38.7375 29.0314 36.7043C29.2135 34.6711 30.0287 32.9287 31.4771 31.4771C32.9255 30.0254 34.6679 29.2102 36.7043 29.0314C38.7408 28.8525 40.6032 29.3456 42.2917 30.5104C43.9833 29.3423 45.8466 28.8493 47.8814 29.0314C49.9162 29.2134 51.6579 30.0287 53.1062 31.4771C54.5546 32.9254 55.3707 34.6679 55.5543 36.7043C55.738 38.7407 55.2442 40.6032 54.0729 42.2916C55.241 43.9833 55.7348 45.8466 55.5543 47.8814C55.3739 49.9162 54.5578 51.6578 53.1062 53.1062C51.6546 54.5546 49.913 55.3706 47.8814 55.5543C45.8498 55.738 43.9865 55.2442 42.2917 54.0729ZM42.2917 45.3125C43.1375 45.3125 43.8528 45.0201 44.4377 44.4352C45.0225 43.8504 45.3141 43.1359 45.3125 42.2916C45.3109 41.4474 45.0185 40.7321 44.4352 40.1456C43.852 39.5592 43.1375 39.2676 42.2917 39.2708C41.4458 39.274 40.7305 39.5664 40.1457 40.1481C39.5608 40.7297 39.2692 41.4442 39.2708 42.2916C39.2724 43.1391 39.5649 43.8544 40.1481 44.4376C40.7313 45.0209 41.4458 45.3125 42.2917 45.3125Z" fill="#011034"/>
</svg>

<svg xmlns="http://www.w3.org/2000/svg" width="58" height="58" fill="none" viewBox="0 0 58 58">
  <path fill="#011034" d="M14.5 48.333c-1.33 0-2.467-.473-3.412-1.418-.946-.946-1.42-2.084-1.421-3.415V25.677L7.25 27.55a2.35 2.35 0 0 1-1.781.483c-.664-.08-1.198-.402-1.602-.966a2.202 2.202 0 0 1-.452-1.752 2.388 2.388 0 0 1 .935-1.571L26.1 7.069a5.03 5.03 0 0 1 2.96-.967c.522 0 1.026.08 1.51.242.486.16.949.402 1.39.725l18.065 13.835c.765.564.957 1.289.575 2.175-.382.886-1.037 1.269-1.965 1.148a12.816 12.816 0 0 0-3.17.032 14.032 14.032 0 0 0-3.173.814c-2.417-.927-4.904-1.138-7.463-.633-2.558.504-4.803 1.722-6.735 3.654-1.932 1.931-3.15 4.177-3.657 6.737-.506 2.56-.294 5.047.636 7.46a17.791 17.791 0 0 0-.604 1.934 10.825 10.825 0 0 0-.302 1.994 2.413 2.413 0 0 1-.633 1.481 1.828 1.828 0 0 1-1.421.633H14.5Zm27.792 5.74c-1.692 1.168-3.554 1.662-5.588 1.481-2.033-.18-3.775-.996-5.227-2.448-1.451-1.451-2.267-3.193-2.445-5.225-.18-2.031.314-3.895 1.479-5.59-1.169-1.691-1.662-3.553-1.48-5.587.183-2.033.998-3.775 2.446-5.227 1.448-1.452 3.19-2.267 5.227-2.446 2.037-.178 3.9.315 5.588 1.48 1.691-1.169 3.555-1.662 5.59-1.48 2.034.182 3.776.998 5.224 2.446 1.449 1.448 2.265 3.19 2.448 5.227.184 2.037-.31 3.9-1.481 5.588 1.168 1.691 1.662 3.555 1.481 5.59-.18 2.034-.996 3.776-2.448 5.224-1.451 1.449-3.193 2.265-5.224 2.448-2.032.184-3.895-.31-5.59-1.481Zm0-8.76c.846 0 1.56-.293 2.146-.878.585-.585.876-1.3.874-2.143-.001-.845-.293-1.56-.877-2.146-.583-.587-1.297-.878-2.143-.875-.846.003-1.561.295-2.146.877-.585.582-.877 1.296-.875 2.144.002.847.294 1.562.877 2.146.583.583 1.298.874 2.144.874Z"/>
</svg>
